assets/src/images/icons/ic_clients.svg

<svg width="50" height="50" viewBox="0 0 50 50" fill="none" xmlns="http://www.w3.org/2000/svg">
<path fill-rule="evenodd" clip-rule="evenodd" d="M41.7573 14.1326C41.6867 14.1125 41.6144 14.1012 41.5415 14.0973C42.6112 12.9729 43.2699 11.4541 43.2699 9.7834V4.64551C43.2699 4.59854 43.2654 4.55273 43.2591 4.50762C43.2655 4.41484 43.2699 4.32148 43.2699 4.22715V0.976562C43.2699 0.437207 42.8327 0 42.2934 0H35.7433C32.985 0 30.741 2.24404 30.741 5.00225V9.7833C30.741 11.454 31.3997 12.9729 32.4694 14.0972C32.3967 14.1011 32.3242 14.1124 32.2536 14.1325C27.6389 14.5506 24.0109 18.4403 24.0109 23.162V27.3342C24.0109 27.8735 24.4482 28.3107 24.9875 28.3107H32.8449C33.3843 28.3107 33.8215 27.8735 33.8215 27.3342C33.8215 26.7948 33.3843 26.3576 32.8449 26.3576H25.9641V23.1621C25.9641 19.5448 28.6784 16.5516 32.1769 16.1069L36.3149 20.2449C36.5056 20.4356 36.7555 20.531 37.0054 20.531C37.2553 20.531 37.5053 20.4356 37.6959 20.2449L41.8339 16.1069C45.3325 16.5517 48.0469 19.5448 48.0469 23.1621V26.3577H40.8528C40.3135 26.3577 39.8763 26.7949 39.8763 27.3343C39.8763 27.8736 40.3135 28.3108 40.8528 28.3108H49.0234C49.5628 28.3108 50 27.8736 50 27.3343V23.1621C50 18.4404 46.372 14.5507 41.7573 14.1326ZM37.0056 18.1733L34.8801 16.0479H39.1311L37.0056 18.1733ZM41.3169 9.7833C41.3169 12.1605 39.3828 14.0946 37.0056 14.0946C34.6283 14.0946 32.6942 12.1606 32.6942 9.7834V8.25644H39.2407C39.9997 8.25644 40.7102 8.04522 41.3169 7.67891V9.7833ZM41.3169 4.22715C41.3169 5.37197 40.3856 6.30332 39.2407 6.30332H32.6942V6.24072V5.00225C32.6942 3.321 34.0621 1.95312 35.7434 1.95312H41.3169V4.22715ZM17.7461 35.8217C17.6755 35.8016 17.6032 35.7902 17.5305 35.7863C18.6002 34.662 19.259 33.1432 19.259 31.4725V26.3347C19.259 26.2877 19.2545 26.2419 19.2481 26.1968C19.2546 26.104 19.259 26.0106 19.259 25.9163V22.6657C19.259 22.1264 18.8218 21.6892 18.2824 21.6892H11.7323C8.97402 21.6892 6.73008 23.9332 6.73008 26.6914V31.4725C6.73008 33.1432 7.38877 34.662 8.45859 35.7863C8.38594 35.7902 8.31367 35.8016 8.24316 35.8217C3.62822 36.2396 0 40.1293 0 44.8512V49.0234C0 49.5628 0.437207 50 0.976562 50H25.0124C25.5518 50 25.989 49.5628 25.989 49.0234V44.8512C25.989 40.1294 22.3609 36.2397 17.7461 35.8217ZM8.6832 27.9298V26.6913C8.6832 25.0101 10.0511 23.6422 11.7323 23.6422H17.3059V25.9162C17.3059 27.061 16.3745 27.9924 15.2297 27.9924H8.6832V27.9298ZM8.6832 29.9455H15.2297C15.9887 29.9455 16.6991 29.7344 17.3059 29.368V31.4724C17.3059 33.8496 15.3718 35.7837 12.9945 35.7837C10.6173 35.7837 8.6832 33.8496 8.6832 31.4724V29.9455ZM15.12 37.7369L12.9945 39.8625L10.869 37.7369H15.12ZM24.0359 48.0469H1.95312V46.0938H6.00586C6.54521 46.0938 6.98242 45.6565 6.98242 45.1172C6.98242 44.5778 6.54521 44.1406 6.00586 44.1406H1.98877C2.3168 40.8481 4.89951 38.2112 8.16602 37.796L12.304 41.934C12.4871 42.1171 12.7355 42.22 12.9945 42.22C13.2535 42.22 13.502 42.1171 13.6851 41.934L17.823 37.796C21.3215 38.2406 24.0359 41.2339 24.0359 44.8512V48.0469ZM37.0059 26.3574C37.2627 26.3574 37.5146 26.4619 37.6963 26.6436C37.8779 26.8252 37.9824 27.0772 37.9824 27.334C37.9824 27.5918 37.8779 27.8428 37.6963 28.0244C37.5146 28.207 37.2627 28.3105 37.0059 28.3105C36.748 28.3105 36.4971 28.207 36.3154 28.0244C36.1328 27.8428 36.0293 27.5918 36.0293 27.334C36.0293 27.0772 36.1328 26.8252 36.3154 26.6436C36.4971 26.4619 36.748 26.3574 37.0059 26.3574ZM26.1138 13.6649L22.0297 9.58086V4.88281C22.0297 2.19043 19.8393 0 17.1469 0H4.88281C2.19043 0 0 2.19043 0 4.88281V13.4766C0 16.1689 2.19043 18.3594 4.88281 18.3594H17.1468C19.1657 18.3594 20.9263 17.1478 21.6649 15.332H25.4231C25.8181 15.332 26.1742 15.094 26.3254 14.7292C26.4766 14.3644 26.393 13.9442 26.1138 13.6649ZM20.9525 13.3789C20.4976 13.3789 20.1028 13.6931 20.0008 14.1365C19.6934 15.4729 18.5198 16.4062 17.1468 16.4062H4.88281C3.26738 16.4062 1.95312 15.092 1.95312 13.4766V4.88281C1.95312 3.26738 3.26738 1.95312 4.88281 1.95312H17.1468C18.7622 1.95312 20.0765 3.26738 20.0765 4.88281V9.98535C20.0765 10.2443 20.1794 10.4928 20.3625 10.6759L23.0655 13.3789H20.9525ZM32.8532 31.6406H45.1172C47.8096 31.6406 50 33.8311 50 36.5234V45.1172C50 47.8096 47.8096 50 45.1172 50H32.8531C30.1607 50 27.9703 47.8096 27.9703 45.1172V40.4191L23.8862 36.3351C23.607 36.0558 23.5234 35.6356 23.6746 35.2708C23.8258 34.906 24.1819 34.668 24.5769 34.668H28.3351C29.0737 32.8522 30.8343 31.6406 32.8532 31.6406ZM45.1172 48.0469C46.7326 48.0469 48.0469 46.7326 48.0469 45.1172V36.5234C48.0469 34.908 46.7326 33.5938 45.1172 33.5938H32.8532C31.4802 33.5938 30.3066 34.5271 29.9992 35.8635C29.8972 36.3069 29.5024 36.6211 29.0475 36.6211H26.9345L29.6375 39.3241C29.8206 39.5072 29.9235 39.7557 29.9235 40.0146V45.1172C29.9235 46.7326 31.2378 48.0469 32.8532 48.0469H45.1172ZM43.3746 38.2219C42.9934 37.8405 42.375 37.8405 41.9937 38.2219L39.3977 40.8179L38.1905 39.6107C37.8092 39.2294 37.1908 39.2294 36.8094 39.6107C36.428 39.9921 36.428 40.6104 36.8094 40.9919L38.707 42.8895C38.8978 43.0803 39.1477 43.1756 39.3976 43.1756C39.6475 43.1756 39.8975 43.0803 40.0881 42.8895L43.3746 39.603C43.756 39.2217 43.756 38.6033 43.3746 38.2219ZM12.3146 3.33174C13.9891 3.44717 15.339 4.79697 15.4544 6.47148C15.5649 8.07461 14.5664 9.50107 13.0533 9.95244V10.2366C13.0533 10.776 12.6161 11.2132 12.0767 11.2132C11.5374 11.2132 11.1002 10.776 11.1002 10.2366V9.71562C11.1002 8.93906 11.6313 8.27783 12.3919 8.10771C13.0867 7.95224 13.5553 7.3206 13.5059 6.60586C13.4572 5.89892 12.8874 5.3291 12.1805 5.28037C11.777 5.25205 11.3928 5.38799 11.0995 5.66182C10.8058 5.93603 10.644 6.3081 10.644 6.70957C10.644 7.24892 10.2068 7.68613 9.66747 7.68613C9.12811 7.68613 8.69091 7.24892 8.69081 6.70947C8.69081 5.77451 9.083 4.87217 9.76669 4.23398C10.46 3.58672 11.3651 3.2664 12.3146 3.33174ZM12.7676 13.2832C12.5859 13.1016 12.334 12.9971 12.0771 12.9971C11.8193 12.9971 11.5684 13.1016 11.3867 13.2832C11.2041 13.4648 11.1006 13.7168 11.1006 13.9736C11.1006 14.2305 11.2041 14.4824 11.3867 14.6641C11.5684 14.8457 11.8193 14.9502 12.0771 14.9502C12.334 14.9502 12.5859 14.8457 12.7676 14.6641C12.9492 14.4824 13.0537 14.2305 13.0537 13.9736C13.0537 13.7168 12.9492 13.4648 12.7676 13.2832ZM9.91211 44.1406C10.1689 44.1406 10.4209 44.2451 10.6025 44.4268C10.7842 44.6084 10.8887 44.8604 10.8887 45.1172C10.8887 45.374 10.7842 45.626 10.6025 45.8076C10.4209 45.9893 10.1689 46.0938 9.91211 46.0938C9.65527 46.0938 9.40332 45.9893 9.22168 45.8076C9.04004 45.626 8.93555 45.374 8.93555 45.1172C8.93555 44.8604 9.04004 44.6084 9.22168 44.4268C9.40332 44.2451 9.65527 44.1406 9.91211 44.1406Z" fill="#0090A1"/>
</svg>

<svg width="50" height="50" viewBox="0 0 50 50" fill="none" xmlns="http://www.w3.org/2000/svg"><path fill-rule="evenodd" clip-rule="evenodd" d="M41.757 14.133a.977.977 0 00-.215-.036 6.241 6.241 0 001.728-4.314V4.646a.993.993 0 00-.01-.138 4.07 4.07 0 00.01-.28V.976A.977.977 0 0042.293 0h-6.55a5.008 5.008 0 00-5.002 5.002v4.781c0 1.671.659 3.19 1.728 4.314a.98.98 0 00-.215.036c-4.615.418-8.243 4.307-8.243 9.029v4.172c0 .54.437.977.977.977h7.857a.977.977 0 100-1.953h-6.88v-3.196c0-3.617 2.713-6.61 6.212-7.055l4.138 4.138a.974.974 0 001.38 0l4.139-4.138c3.498.445 6.213 3.438 6.213 7.055v3.196h-7.194a.977.977 0 000 1.953h8.17c.54 0 .977-.437.977-.977v-4.172c0-4.722-3.628-8.611-8.243-9.03zm-4.751 4.04l-2.126-2.125h4.251l-2.125 2.125zm4.31-8.39a4.316 4.316 0 01-4.31 4.312 4.316 4.316 0 01-4.312-4.312V8.256h6.547c.759 0 1.47-.21 2.076-.577v2.104zm0-5.556a2.078 2.078 0 01-2.075 2.076h-6.547V5.002a3.053 3.053 0 013.05-3.049h5.573v2.274zm-23.57 31.595a.978.978 0 00-.215-.036 6.24 6.24 0 001.728-4.314v-5.137a.978.978 0 00-.01-.138 4.01 4.01 0 00.01-.28v-3.251a.977.977 0 00-.977-.977h-6.55a5.008 5.008 0 00-5.002 5.002v4.782c0 1.67.659 3.189 1.729 4.313a.976.976 0 00-.216.036C3.628 36.24 0 40.129 0 44.852v4.171c0 .54.437.977.977.977h24.035c.54 0 .977-.437.977-.977v-4.172c0-4.722-3.628-8.611-8.243-9.03zM8.683 27.93v-1.24a3.053 3.053 0 013.05-3.049h5.573v2.274a2.079 2.079 0 01-2.076 2.076H8.683v-.062zm0 2.015h6.547c.759 0 1.47-.21 2.076-.577v2.104a4.316 4.316 0 01-4.312 4.312 4.316 4.316 0 01-4.31-4.312v-1.527zm6.437 7.792l-2.125 2.125-2.126-2.125h4.251zm8.916 10.31H1.953v-1.953h4.053a.977.977 0 000-1.953H1.989a7.127 7.127 0 016.177-6.345l4.138 4.138a.977.977 0 001.381 0l4.138-4.138c3.498.445 6.213 3.438 6.213 7.055v3.196zm12.97-21.69a.98.98 0 01.69.287.984.984 0 01.286.69.98.98 0 01-1.667.69.978.978 0 01.69-1.667zM26.114 13.665L22.03 9.58V4.883A4.888 4.888 0 0017.147 0H4.883A4.888 4.888 0 000 4.883v8.594a4.888 4.888 0 004.883 4.882h12.264a4.855 4.855 0 004.518-3.027h3.758a.977.977 0 00.69-1.667zm-5.162-.286a.977.977 0 00-.951.758 2.914 2.914 0 01-2.854 2.27H4.883a2.933 2.933 0 01-2.93-2.93V4.883a2.933 2.933 0 012.93-2.93h12.264a2.933 2.933 0 012.93 2.93v5.102c0 .26.102.508.285.69l2.704 2.704h-2.113zM32.853 31.64h12.264A4.888 4.888 0 0150 36.523v8.594A4.888 4.888 0 0145.117 50H32.853a4.888 4.888 0 01-4.883-4.883V40.42l-4.084-4.084a.977.977 0 01.69-1.667h3.76a4.855 4.855 0 014.517-3.027zm12.264 16.406a2.933 2.933 0 002.93-2.93v-8.594a2.933 2.933 0 00-2.93-2.93H32.853A2.914 2.914 0 0030 35.864a.977.977 0 01-.951.758h-2.113l2.703 2.703a.977.977 0 01.285.69v5.103a2.933 2.933 0 002.93 2.93h12.264zm-1.742-9.825a.976.976 0 00-1.381 0l-2.596 2.596-1.208-1.207a.977.977 0 00-1.38 1.38l1.897 1.898a.973.973 0 001.381 0l3.287-3.286a.977.977 0 000-1.381zm-31.06-34.89a3.394 3.394 0 013.14 3.14 3.368 3.368 0 01-2.402 3.48v.285a.977.977 0 11-1.953 0v-.521a1.64 1.64 0 011.292-1.608 1.433 1.433 0 10-1.748-1.398.977.977 0 11-1.953 0c0-.935.392-1.838 1.076-2.476a3.358 3.358 0 012.548-.902zm.453 9.951a.984.984 0 00-.69-.286.98.98 0 00-.69 1.667.982.982 0 00.69.286.984.984 0 00.69-.286.984.984 0 00.286-.69.984.984 0 00-.286-.69zM9.912 44.141a.98.98 0 01.69.286.984.984 0 01.287.69.984.984 0 01-.287.69.984.984 0 01-.69.287.984.984 0 01-.69-.286.984.984 0 01-.286-.69.98.98 0 01.286-.691.984.984 0 01.69-.286z" fill="#0090A1"/></svg>
